X: 1
T:Globetrotter's Jig
M:6/8
L:1/8
K:C
G,|CEG cBc|agec2A|Bag B2B|cAgc2G,|
CEG cBc|agec2A|Bag fed|c3c2:|
|:B/c/|d2Bg2d|B2bg3|fga def|gfed2B/c/|
d2Bg2d|B2bg3|1fga def|g3-g2:|2fed cBA|G3-G2|]

